X:68
%%etbk:tnset id:23,pos:3,rep:3x,ant:
%%etbk:wsite http://www.thesession.org/tunes/display/1499
%%etbk:pldat 2016-09-11T16:12,2016-09-08T18:11,2016-09-06T17:48,2016-07-12T16:36,2016-07-09T14:21,2016-05-23T19:00,2015-12-23T18:02,2015-12-15T17:49,2015-12-01T17:14,2015-11-28T16:31,2015-11-24T18:38,2015-07-08T16:09,2015-03-25T19:17,2015-02-17T17:14,2015-02-06T18:18,2015-01-29T18:31,2015-01-24T13:11,2015-01-21T18:08,2015-01-20T17:53,2015-01-13T17:50,2014-12-27T14:36,2014-12-26T16:07,2014-12-20T14:30,2014-12-15T16:55,2014-12-01T18:56,2014-11-24T16:16,2014-10-12T15:18,2014-05-19T18:40,2014-05-09T18:18,2014-03-27T18:43,2014-03-14T18:04,2014-02-25T19:37,2014-02-20T19:11,2014-02-13T18:24,2014-02-10T18:52,2013-11-23T15:26,2013-11-19T16:55,2013-11-18T18:47,2013-10-08T15:29,2013-08-29T16:30,2013-08-26T18:22,2013-05-23T18:44,2013-05-22T15:58,2013-05-07T19:33,2013-05-06T18:32,2013-05-05T14:43
T: Old Bush, The
Z: Piano Box Version by Martin Fleischmann
H: Created 2013-02-19 /  Last Modified 2013-02-19
M: 4/4
L: 1/8
R: reel
K: Dmix
|:"am"!1!A2!2!G!1!A !3!c!1!A!2!A!1!A | "D"!3!d^cde !5!f!3!d!4!e!2!c | "am"!1!A2!2!G!1!A !3!c!1!A !3!(3A!2!A!1!A | "D"!3!d!5!fed !2!c!1!A!3!dc |
"am"!1!A3A !3!c!1!A !3!(3A!2!A!1!A | "D"!3!d^cd!4!e !3!f3g | !5!a2!4!g!2!e !3!f!1!d!4!e!2!^c |1 !3!dfed !2!cAdc:|2 !3!dfed !2!c!1!AA2|
|:"C"!2!e2!4!gg !2!e!1!d!2!c!1!d | !2!efge !1!c3!1!d | !2!e!4!g!3!g!4!g !5!a2ge | "D"!1!dfe!1!d !3!c!1!AA2 |
"C"!2!e!4!g!3!g!4!g !5!a!4!g!3!g!4!g | !2!efge !1!defg | "D"!5!a2!4!g!2!e !3!f!1!d!4!e!2!^c | !3!dfed !2!c!1!AA2:|


